public/assets/img/credits/Telus-Logo.svg

<svg xmlns="http://www.w3.org/2000/svg" width="220" height="45" version="1.0"><path d="M160.391 17.903v-4.846h-17.287V37.99h17.287v-5.057h-10.288v-5.527h8.557v-4.84h-8.557v-4.663h10.288m30.484 15.167h-10.8V13.057h-7.085V37.99h17.885v-4.92m57.064-10.511c-4.781-1.077-6.455-1.202-6.455-3.104 0-1.765 2.369-2.314 3.732-2.314 2.204 0 4.807.514 7.46 1.874l1.929-4.588c-2.719-1.482-6.207-2.099-9.562-2.099-6.593 0-11.017 2.675-11.203 7.89-.188 4.756 3.679 6.535 7.233 7.269 3.426.708 6.902 1.314 6.972 3.349.063 1.877-1.625 2.681-4.81 2.681-2.95 0-5.693-.948-8.495-2.122l-1.638 4.987c3.222 1.37 6.492 2.125 9.863 2.125 4.684 0 8.102-.731 10.618-3.093 1.744-1.622 2.315-3.58 2.315-5.449.004-3.941-2.453-6.161-7.959-7.406m-114.886-4.58v-4.922h-21.744v4.922h7.346V37.99h7.043V17.979h7.355m81.994-4.922v15.841c0 1.241 0 1.584-.074 2.067-.228 1.51-1.69 2.386-4.024 2.417-1.728-.028-2.994-.539-3.583-1.442-.297-.464-.441-1.298-.441-2.63V13.057h-7.348V30.24c0 2.381.318 3.456 1.393 4.815 1.774 2.217 5.232 3.383 9.993 3.383h.261c6.375 0 9.668-2.486 10.619-4.812.475-1.128.51-1.662.51-3.938V13.057h-7.306M114.628 6.23l-41.207 8.204v2.874l.131-.034c27.222-6.617 41.075-10.597 41.187-10.625.154-.04.208-.16.187-.261-.023-.106-.134-.194-.298-.158" style="fill:#49266c" transform="translate(-15.927 -2.665) scale(.91092)"/><path d="M79.716 8.01v-.004.004m1.409-2.564c-2.003.114-5.712 3.081-7.748 4.843-8.107 7.014-14.135 13.461-18.518 20.213-9.137 4.894-20.788 9.927-32.354 13.855l-.279.094L20 50.445l1.271-.491c7.358-2.804 19.639-8.07 30.772-13.924-.627 1.672-.943 3.209-.943 4.61 0 1.045.175 2.017.524 2.9.7 1.764 2.08 3.1 3.993 3.859 2.849 1.137 6.736 1.158 11.171-.185 11.33-3.434 24.769-13.978 27.695-16.075l.112-.079c.115-.083.123-.208.075-.293-.064-.097-.199-.123-.31-.055h-.001.001l-.144.087c-3.14 1.885-18.398 10.944-28.316 13.604-5.052 1.355-8.902.615-10.354-1.416-.504-.694-.747-1.572-.747-2.596 0-1.999.941-4.544 2.753-7.373a124.653 124.653 0 0 0 4.63-2.759c9.676-5.438 20.824-16.011 21.3-22.465.002-.044.002-.095.002-.143 0-.557-.241-1.13-.664-1.553a2.14 2.14 0 0 0-1.695-.652zm-1.079 3.076c.635-.411.818-.154.631.31-.302.741-1.699 5.199-12.072 13.715-2.707 2.217-4.632 3.462-8.53 5.77 6.383-8.945 15.702-17.023 19.971-19.795z" style="fill:#6ebe44" transform="translate(-15.927 -2.665) scale(.91092)"/><path d="M73.286 14.461 29.932 23.78l-1.672 4.509 45.161-10.982 1.397-.789-.039-2.052-1.493-.005" style="fill:#49266c" transform="translate(-15.927 -2.665) scale(.91092)"/></svg>

<?xml version="1.0" encoding="UTF-8" standalone="no"?>
<!-- Created with Inkscape (http://www.inkscape.org/) -->
<svg xmlns:svg="http://www.w3.org/2000/svg" xmlns="http://www.w3.org/2000/svg" version="1.0" width="220" height="45" id="svg2">
  <defs id="defs4"/>
  <g transform="translate(-402.051, -487.003)" id="layer1">
    <g transform="matrix(0.910916, 0, 0, 0.910916, 386.124, 484.338)" id="g2408">
      <polyline id="polyline2384" points="160.391,17.903 160.391,13.057 143.104,13.057 143.104,37.99 160.391,37.99 160.391,32.933 150.103,32.933 150.103,27.406 158.66,27.406 158.66,22.566 150.103,22.566 150.103,17.903 160.391,17.903" style="fill: rgb(73, 38, 108);"/>
      <polyline id="polyline2386" points="190.875,33.07 180.075,33.07 180.075,13.057 172.99,13.057 172.99,37.99 190.875,37.99 190.875,33.07" style="fill: rgb(73, 38, 108);"/>
      <path d="M 247.939,22.559 C 243.158,21.482 241.484,21.357 241.484,19.455 C 241.484,17.69 243.853,17.141 245.216,17.141 C 247.42,17.141 250.023,17.655 252.676,19.015 L 254.605,14.427 C 251.886,12.945 248.398,12.328 245.043,12.328 C 238.45,12.328 234.026,15.003 233.84,20.218 C 233.652,24.974 237.519,26.753 241.073,27.487 C 244.499,28.195 247.975,28.801 248.045,30.836 C 248.108,32.713 246.42,33.517 243.235,33.517 C 240.285,33.517 237.542,32.569 234.74,31.395 L 233.102,36.382 C 236.324,37.752 239.594,38.507 242.965,38.507 C 247.649,38.507 251.067,37.776 253.583,35.414 C 255.327,33.792 255.898,31.834 255.898,29.965 C 255.902,26.024 253.445,23.804 247.939,22.559" id="path2388" style="fill: rgb(73, 38, 108);"/>
      <polyline id="polyline2390" points="133.053,17.979 133.053,13.057 111.309,13.057 111.309,17.979 118.655,17.979 118.655,37.99 125.698,37.99 125.698,17.979 133.053,17.979" style="fill: rgb(73, 38, 108);"/>
      <path d="M 215.047,13.057 L 215.047,28.898 C 215.047,30.139 215.047,30.482 214.973,30.965 C 214.745,32.475 213.283,33.351 210.949,33.382 C 209.221,33.354 207.955,32.843 207.366,31.94 C 207.069,31.476 206.925,30.642 206.925,29.31 L 206.925,13.057 L 199.577,13.057 L 199.577,30.24 C 199.577,32.621 199.895,33.696 200.97,35.055 C 202.744,37.272 206.202,38.438 210.963,38.438 C 211.017,38.438 211.064,38.438 211.12,38.438 C 211.145,38.438 211.188,38.438 211.224,38.438 C 217.599,38.438 220.892,35.952 221.843,33.626 C 222.318,32.498 222.353,31.964 222.353,29.688 L 222.353,13.057 L 215.047,13.057" id="path2392" style="fill: rgb(73, 38, 108);"/>
      <path d="M 114.628,6.23 L 73.421,14.434 L 73.421,17.308 L 73.552,17.274 C 100.774,10.657 114.627,6.677 114.739,6.649 C 114.893,6.609 114.947,6.489 114.926,6.388 C 114.903,6.282 114.792,6.194 114.628,6.23" id="path2394" style="fill: rgb(73, 38, 108);"/>
      <path d="M 79.716,8.01 L 79.716,8.006 L 79.716,8.01 M 81.125,5.446 C 79.122,5.56 75.413,8.527 73.377,10.289 C 65.27,17.303 59.242,23.75 54.859,30.502 C 45.722,35.396 34.071,40.429 22.505,44.357 L 22.226,44.451 L 20,50.445 L 21.271,49.954 C 28.629,47.15 40.91,41.884 52.043,36.03 C 51.416,37.702 51.1,39.239 51.1,40.64 C 51.1,41.685 51.275,42.657 51.624,43.54 C 52.324,45.304 53.704,46.64 55.617,47.399 C 58.466,48.536 62.353,48.557 66.788,47.214 C 78.118,43.78 91.557,33.236 94.483,31.139 L 94.595,31.06 C 94.71,30.977 94.718,30.852 94.67,30.767 C 94.606,30.67 94.471,30.644 94.36,30.712 L 94.359,30.712 L 94.36,30.712 L 94.216,30.799 C 91.076,32.684 75.818,41.743 65.9,44.403 C 60.848,45.758 56.998,45.018 55.546,42.987 C 55.042,42.293 54.799,41.415 54.799,40.391 C 54.799,38.392 55.74,35.847 57.552,33.018 C 59.22,32.069 60.778,31.141 62.182,30.259 C 71.858,24.821 83.006,14.248 83.482,7.794 C 83.484,7.75 83.484,7.699 83.484,7.651 C 83.484,7.094 83.243,6.521 82.82,6.098 C 82.366,5.635 81.768,5.404 81.125,5.446 z M 80.046,8.522 C 80.681,8.111 80.864,8.368 80.677,8.832 C 80.375,9.573 78.978,14.031 68.605,22.547 C 65.898,24.764 63.973,26.009 60.075,28.317 C 66.458,19.372 75.777,11.294 80.046,8.522 z" id="path2396" style="fill: rgb(110, 190, 68);"/>
      <polyline id="polyline2398" points="73.286,14.461 29.932,23.78 28.26,28.289 73.421,17.307 74.818,16.518 74.779,14.466 73.286,14.461" style="fill: rgb(73, 38, 108);"/>
    </g>
  </g>
</svg>
